packages/icons/svgs/solid/Source=trash.svg

<svg width="12" height="12" viewBox="0 0 12 12" fill="none" xmlns="http://www.w3.org/2000/svg">
<g clip-path="url(#clip0_1606_952)">
<path d="M11.25 2.25H9V0.75C9 0.551088 8.92098 0.360322 8.78033 0.21967C8.63968 0.0790176 8.44891 0 8.25 0H3.75C3.55109 0 3.36032 0.0790176 3.21967 0.21967C3.07902 0.360322 3 0.551088 3 0.75V2.25H0.75C0.551088 2.25 0.360322 2.32902 0.21967 2.46967C0.0790176 2.61032 0 2.80109 0 3C0 3.19891 0.0790176 3.38968 0.21967 3.53033C0.360322 3.67098 0.551088 3.75 0.75 3.75H11.25C11.4489 3.75 11.6397 3.67098 11.7803 3.53033C11.921 3.38968 12 3.19891 12 3C12 2.80109 11.921 2.61032 11.7803 2.46967C11.6397 2.32902 11.4489 2.25 11.25 2.25ZM4.5 2.25V1.5H7.5V2.25H4.5Z" fill="black"/>
<path d="M1.54125 5.25L1.87875 11.325C1.89741 11.5106 1.98459 11.6827 2.12327 11.8075C2.26195 11.9323 2.44217 12.0009 2.62875 12H9.37875C9.56468 12 9.74398 11.9309 9.88187 11.8062C10.0198 11.6815 10.1064 11.51 10.125 11.325L10.4625 5.25H1.54125Z" fill="black"/>
</g>
<defs>
<clipPath id="clip0_1606_952">
<rect width="12" height="12" fill="white"/>
</clipPath>
</defs>
</svg>

<svg xmlns="http://www.w3.org/2000/svg" width="12" height="12" viewBox="0 0 12 12"><g clip-path="url(#a)"><path d="M11.25 2.25H9V.75A.75.75 0 0 0 8.25 0h-4.5A.75.75 0 0 0 3 .75v1.5H.75a.75.75 0 0 0 0 1.5h10.5a.75.75 0 1 0 0-1.5Zm-6.75 0V1.5h3v.75h-3Zm-2.959 3 .338 6.075a.75.75 0 0 0 .75.675h6.75a.75.75 0 0 0 .746-.675l.338-6.075H1.54Z"/></g><defs><clipPath id="a"><path fill="#fff" d="M0 0h12v12H0z"/></clipPath></defs></svg>
